ui/StatusQ/src/assets/img/icons/emojiReactions/thumbsDown.svg

<svg fill="none" height="32" viewBox="0 0 31 32" width="31" xmlns="http://www.w3.org/2000/svg" xmlns:xlink="http://www.w3.org/1999/xlink"><radialGradient id="a" cx="0" cy="0" gradientTransform="matrix(8.00000342 -14.99999818 17.44914494 9.30621574 10 19.5)" gradientUnits="userSpaceOnUse" r="1"><stop offset="0" stop-color="#ffd764"/><stop offset="1" stop-color="#ffb746"/></radialGradient><linearGradient id="b" gradientUnits="userSpaceOnUse" x1="25.517" x2="25.517" y1="18.0312" y2="-.000006"><stop offset="0" stop-color="#2196e8"/><stop offset="1" stop-color="#6bc2ff"/></linearGradient><path d="m8 28.1932c0 2.5 2.567 3.5 4.5 3.5s2.5-1.567 2.5-3.5c0-1.1644-.5-2-.5-3.39 0-3.11 2.1653-4.6089 3.5-5.61 2-1.5 6-1.5001 6-5.5 0-5.50002-5.5-10.99996-12-10.99996-6.62744 0-12 5.37256-12 11.99996 0 5.7984 3.73569 8.795 8.95072 5.831.28279-.1607.64983-.0302.69337.2921.17685 1.3092-.3868 2.6618-.98222 3.9869-.66187 1.39-.66187 2.39-.66187 3.39z" fill="#ffd764"/><path d="m8 28.1932c0 2.5 2.567 3.5 4.5 3.5s2.5-1.567 2.5-3.5c0-1.1644-.5-2-.5-3.39 0-3.11 2.1653-4.6089 3.5-5.61 2-1.5 6-1.5001 6-5.5 0-5.50002-5.5-10.99996-12-10.99996-6.62744 0-12 5.37256-12 11.99996 0 5.7984 3.73569 8.795 8.95072 5.831.28279-.1607.64983-.0302.69337.2921.17685 1.3092-.3868 2.6618-.98222 3.9869-.66187 1.39-.66187 2.39-.66187 3.39z" fill="url(#a)"/><path d="m20.2524 1.25946c.1065-.851821.9092-1.448339 1.7323-1.2044387 7.6142 2.2562887 11.4401 10.5807787 7.3521 17.5188787-.2207.3747-.6723.5382-1.0904.4188l-1.6917-.4834c-.5844-.167-.8821-.8144-.7477-1.4071.957-4.2219-2.1524-10.14899-5.1943-12.0572-.3775-.23682-.6264-.65637-.5711-1.09857z" fill="url(#b)"/></svg>

<svg width="31" height="32" viewBox="0 0 31 32" fill="none" xmlns="http://www.w3.org/2000/svg">
<path d="M8 28.1932C8 30.6932 10.567 31.6932 12.5 31.6932C14.433 31.6932 15 30.1262 15 28.1932C15 27.0288 14.5 26.1932 14.5 24.8032C14.5 21.6932 16.6653 20.1943 18 19.1932C20 17.6932 24 17.6931 24 13.6932C24 8.19318 18.5 2.69324 12 2.69324C5.37256 2.69324 0 8.0658 0 14.6932C0 20.4916 3.73569 23.4882 8.95072 20.5242C9.23351 20.3635 9.60055 20.494 9.64409 20.8163C9.82094 22.1255 9.25729 23.4781 8.66187 24.8032C8 26.1932 8 27.1932 8 28.1932Z" fill="#FFD764"/>
<path d="M8 28.1932C8 30.6932 10.567 31.6932 12.5 31.6932C14.433 31.6932 15 30.1262 15 28.1932C15 27.0288 14.5 26.1932 14.5 24.8032C14.5 21.6932 16.6653 20.1943 18 19.1932C20 17.6932 24 17.6931 24 13.6932C24 8.19318 18.5 2.69324 12 2.69324C5.37256 2.69324 0 8.0658 0 14.6932C0 20.4916 3.73569 23.4882 8.95072 20.5242C9.23351 20.3635 9.60055 20.494 9.64409 20.8163C9.82094 22.1255 9.25729 23.4781 8.66187 24.8032C8 26.1932 8 27.1932 8 28.1932Z" fill="url(#paint0_radial)"/>
<path d="M20.2524 1.25946C20.3589 0.407639 21.1616 -0.188879 21.9847 0.0550213C29.5989 2.31131 33.4248 10.6358 29.3368 17.5739C29.1161 17.9486 28.6645 18.1121 28.2464 17.9927L26.5547 17.5093C25.9703 17.3423 25.6726 16.6949 25.807 16.1022C26.764 11.8803 23.6546 5.95321 20.6127 4.045C20.2352 3.80818 19.9863 3.38863 20.0416 2.94643L20.2524 1.25946Z" fill="url(#paint1_linear)"/>
<defs>
<radialGradient id="paint0_radial" cx="0" cy="0" r="1" gradientUnits="userSpaceOnUse" gradientTransform="translate(10 19.5) rotate(-61.9275) scale(17 19.7757)">
<stop stop-color="#FFD764"/>
<stop offset="1" stop-color="#FFB746"/>
</radialGradient>
<linearGradient id="paint1_linear" x1="25.517" y1="18.0312" x2="25.517" y2="-5.72205e-06" gradientUnits="userSpaceOnUse">
<stop stop-color="#2196E8"/>
<stop offset="1" stop-color="#6BC2FF"/>
</linearGradient>
</defs>
</svg>
